X: 1
T: Delia Keane's
M: 6/8
L: 1/8
R: jig
K: Gmaj
DGA BAG|dGG ABc|Add d2c|AGA BGE|
DGA BAG|dGG ABc|Add d2c|1AGG GFE:|2AGG G2A||
B3 dBd|e/f/ge dBG|cec BAG|EAA ABc|
B2d dBd|e/f/ge dBG|cec BdB|1AGG G2c:|2AGG G2A||
